svgs/sharp-light/arrows-minimize.svg

<svg xmlns="http://www.w3.org/2000/svg" viewBox="0 0 512 512"><!--! Font Awesome Pro 6.6.0 by @fontawesome - https://fontawesome.com License - https://fontawesome.com/license (Commercial License) Copyright 2024 Fonticons, Inc. --><path d="M56 33.4L67.3 44.7 192 169.4 192 64l0-16 32 0 0 16 0 144 0 16-16 0L64 224l-16 0 0-32 16 0 105.4 0L44.7 67.3 33.4 56 56 33.4zM478.6 56L467.3 67.3 342.6 192 448 192l16 0 0 32-16 0-144 0-16 0 0-16 0-144 0-16 32 0 0 16 0 105.4L444.7 44.7 456 33.4 478.6 56zM48 320l0-32 16 0 144 0 16 0 0 16 0 144 0 16-32 0 0-16 0-105.4L67.3 467.3 56 478.6 33.4 456l11.3-11.3L169.4 320 64 320l-16 0zm240-32l16 0 144 0 16 0 0 32-16 0-105.4 0L467.3 444.7 478.6 456 456 478.6l-11.3-11.3L320 342.6 320 448l0 16-32 0 0-16 0-144 0-16z"/></svg>

<svg xmlns="http://www.w3.org/2000/svg" viewBox="0 0 512 512"><!--! Font Awesome Pro 6.4.0 by @fontawesome - https://fontawesome.com License - https://fontawesome.com/license (Commercial License) Copyright 2023 Fonticons, Inc. --><path d="M56 33.4L67.3 44.7 192 169.4V64 48h32V64 208v16H208 64 48V192H64 169.4L44.7 67.3 33.4 56 56 33.4zM478.6 56L467.3 67.3 342.6 192H448h16v32H448 304 288V208 64 48h32V64 169.4L444.7 44.7 456 33.4 478.6 56zM48 320V288H64 208h16v16V448v16H192V448 342.6L67.3 467.3 56 478.6 33.4 456l11.3-11.3L169.4 320H64 48zm240-32h16H448h16v32H448 342.6L467.3 444.7 478.6 456 456 478.6l-11.3-11.3L320 342.6V448v16H288V448 304 288z"/></svg>
